svgs/sharp-light/send-back.svg

<svg xmlns="http://www.w3.org/2000/svg" viewBox="0 0 640 512"><!--! Font Awesome Pro 6.6.0 by @fontawesome - https://fontawesome.com License - https://fontawesome.com/license (Commercial License) Copyright 2024 Fonticons, Inc. --><path d="M224 32l0 192L32 224 32 32l192 0zM32 0L0 0 0 32 0 224l0 32 32 0 192 0 32 0 0-32 0-192 0-32L224 0 32 0zM608 288l0 192-192 0 0-192 192 0zM416 256l-32 0 0 32 0 192 0 32 32 0 192 0 32 0 0-32 0-192 0-32-32 0-192 0zM160 288l0 96 0 32 32 0 160 0 0-32-160 0 0-96-32 0zM480 128l0-32-32 0L288 96l0 32 160 0 0 96 32 0 0-96zm-64 64l0-32-32 0-96 0 0 32 96 0 0 32 32 0 0-32zM256 320l0-32-32 0 0 32 0 32 32 0 96 0 0-32-96 0z"/></svg>

<svg xmlns="http://www.w3.org/2000/svg" viewBox="0 0 640 512"><!--! Font Awesome Pro 6.4.0 by @fontawesome - https://fontawesome.com License - https://fontawesome.com/license (Commercial License) Copyright 2023 Fonticons, Inc. --><path d="M224 32V224H32V32H224zM32 0H0V32 224v32H32 224h32V224 32 0H224 32zM608 288V480H416V288H608zM416 256H384v32V480v32h32H608h32V480 288 256H608 416zM160 288v96 32h32H352V384H192V288H160zM480 128V96H448 288v32H448v96h32V128zM160 96v64H96V96h64zM96 64H64V96v64 32H96h64 32V160 96 64H160 96zM480 352h64v64H480V352zm-32-32v32 64 32h32 64 32V416 352 320H544 480 448z"/></svg>
